actions/22/view-sidetree.svg

<svg xmlns="http://www.w3.org/2000/svg" viewBox="0 0 22 22">
  <defs id="defs3051">
<style type="text/css" id="current-color-scheme">.ColorScheme-Text {color:#fcfcfc;}</style>
  </defs>
 <path 
    style="fill:currentColor;fill-opacity:1;stroke:none" 
    d="m 3,6 v 10 c 0,0 0,3 3,3 3,0 7,0 10,0 3,0 3,-3 3,-3 V 6 C 19,6 19,3 16,3 13,3 9,3 6,3 3,3 3,6 3,6 Z m 1,3 c 0,0 0,-2 2,-2 2,0 8,0 10,0 2,0 2,2 2,2 v 7 c 0,0 0,2 -2,2 C 14,18 8,18 6,18 4,18 4,16 4,16 Z M 5,8 v 9 h 4 v -2 h 4 v 1.900391 h 4 v -4 H 13 V 14 H 9 v -4 h 4 v 2 h 4 V 8 H 13 V 9 H 9 V 8 Z m 9,1 h 2 v 2 h -2 z m 0,4.900391 h 2 v 2 h -2 z"
	class="ColorScheme-Text"
    />  
</svg>

<svg xmlns="http://www.w3.org/2000/svg" viewBox="0 0 22 22">
  <defs id="defs3051">
    <style type="text/css" id="current-color-scheme">
      .ColorScheme-Text {
        color:#eff0f1;
      }
      </style>
  </defs>
 <path 
    style="fill:currentColor;fill-opacity:1;stroke:none" 
    d="M 3 3 L 3 19 L 19 19 L 19 3 L 3 3 z M 4 7 L 18 7 L 18 18 L 4 18 L 4 7 z M 5 8 L 5 17 L 9 17 L 9 15 L 13 15 L 13 16.900391 L 17 16.900391 L 17 12.900391 L 13 12.900391 L 13 14 L 9 14 L 9 10 L 13 10 L 13 12 L 17 12 L 17 8 L 13 8 L 13 9 L 9 9 L 9 8 L 5 8 z M 14 9 L 16 9 L 16 11 L 14 11 L 14 9 z M 14 13.900391 L 16 13.900391 L 16 15.900391 L 14 15.900391 L 14 13.900391 z "
	class="ColorScheme-Text"
    />  
</svg>
